X: 51
T:Lord Harwick's March. HS.51
M:C|
S:Henry Stables MS,Cumbria,late19thC
R:March
O:Walthwaite,nr.Ambleside.
A:England
Z:vmp.Chris Partington
K:Bb
"Segno"|d2d>dd2d2|d3f bfed|c2c>cc2c2|c3d egfe|!
d2d>dd2d2|d3f bfed|.c.g.f.e .d.c.B.A|B2B>B"FINE"B4:|!
|f2f>ff2f2|d2B2f4|FF/F/ FF FFFF|D2B,2F2f>f|!
f2 F>FF2f>f|f2 F>FF2F>F|.b.b .f.f .d.f.d.B|f2f>ff4::!
"P"B4F4|d4B4|f2bfd2fd|B2dcF2e2|!
d2 (B/c/d/e/) .f.f .b.b|b2(B/c/d/e/) .f.f .a.a|\
.b.b .f.f .d.f.d.B|f2f>ff4::!
"F"FF/F/ FF FFFF|e4c4|FF/F/ FF FFFF|f4d4|!
e2zde2zd|.e2.d2.c2.B2|1.f2.e2.d2.c2:|2.A2.G2.F2."DC"E2||
